!!!COM: Bach, Johann Sebastian
!!!OTL: 46. Vom Himmel hoch, da komm' ich her
!!!ONM: No. 46
!!!OCL: Erk
!!!SCA: BWV 248.9
!!!YOE: Riemenschneider, Albert
!!!OPR: 371 Harmonized Chorales and 69 Chorale Melodies with Figured Bass
!!!OPT: Bach Chorale Harmonizations
!!!ONB: From the end of the "Christmas Oratorio"
**harm	**root	**kern	**kern	**kern	**kern
!	!	!bass	!tenor	!alto	!sprno
*Iorgan	*Iorgan	*Iorgan	*Iorgan	*Iorgan	*Iorgan
*k[b-e-a-]	*k[b-e-a-]	*k[b-e-a-]	*k[b-e-a-]	*k[b-e-a-]	*k[b-e-a-]
*E-:	*E-:	*E-:	*E-:	*E-:	*E-:
*met(c)	*met(c)	*met(c)	*met(c)	*met(c)	*met(c)
*M4/4	*M4/4	*M4/4	*M4/4	*M4/4	*M4/4
*MM60	*MM60	*MM60	*MM60	*MM60	*MM60
I	4DD	4E-	4g	4b-	4ee-
=1	=1	=1	=1	=1	=1
V	4AA	4.B-	4f	8b-	4dd
.	.	.	.	8a	.
vi7d	4BB	.	4e-	4g	4cc
.	.	8A	.	.	.
V	4AA	8B-	4d	4f	4dd
.	.	8A-	.	.	.
Ib	4DD	4G	8e-	8g	4b-
.	.	.	8d	8f	.
=2	=2	=2	=2	=2	=2
IV	4GG	8A-	8c	4e-	4cc
.	.	8G	8B-	.	.
viib	4CC#	4F	4A-	4f	4dd
I;	4DD;	4E-;	4B-;	4g;	4ee-;
I	4DD	8E-	4B-	8g	4ee-
.	.	8F	.	8a-	.
=3	=3	=3	=3	=3	=3
Ib	4DD	4G	4e-	8b-	4ee-
.	.	.	.	8a-	.
Ib	4DD	8G	4e-	4g	4b-
.	.	8A-	.	.	.
V	4AA	4B-	4d	4f	4b-
V7c/IV	8DD	8B-	8d-	4e-	8g
IV	8GG	8A-	8c	.	8a-
=4	=4	=4	=4	=4	=4
Ib	4DD	8G	4B-	4e-	4b-
.	.	8F	.	.	.
V7b	4AA	8E-	4B-	4f	4a-
.	.	8Dy	.	.	.
I;	4DD;	4E-;	4B-;	4e-;	4g;
I	4DD	4E-	4B-	8e-	4g
.	.	.	.	8f	.
=5	=5	=5	=5	=5	=5
!!linebreak: 2
V7b/ii	4BB	4E	4B-	4g	4cc
II	4EE	8F	4A	4f	4cc
.	.	8E-	.	.	.
Vb	8AA	8D	8B-	8f	8b-
viib/V	8GG#	8C	8e-	8a	8cc
V	4AA	4BB-	8d	4b-	4dd
.	.	.	8c	.	.
=6	=6	=6	=6	=6	=6
Ib	8DD	8G	8B-	4.b-	8ee-
Vb	8AA	8F	8d	.	8dd
vii7b	8CC#	8E-	8g	.	4cc
V/V	8EE	8F	8f	8a	.
V;	4AA;	4BB-;	4d;	4f;	4b-;
vi	8BB	8c	8e-	8g	4ee-
V7/V	8EE	8F	[8c	8f	.
=7	=7	=7	=7	=7	=7
V	8AA	4B-	8c]	8f	4dd
iiib	8FF#	.	8B-	[8g	.
vi7b	8BB	8E-	8B-	8g]	4cc
iib	8EE	[8A-	8A-	8f	.
V7d	8AA	8A-]	4B-	8d	4b-
Ib	8DD	8G	.	8e-	.
IV	8GG	8A-	8A-	8c	8cc
iii	8FF#	8B-	8G	8d	8b-
=8	=8	=8	=8	=8	=8
IVb	4GG	8c	4E-	4.e-	8a-
.	.	8A-	.	.	8g
V	8AA	8B-	8B-	.	4f
V7	8AA	8BB-	8A-	8d	.
I;	4DD;	4E-;	4G;	4B-;	4e-;
==	==	==	==	==	==
*-	*-	*-	*-	*-	*-
!!!CDT: 1685/3//-1750/7/28
!!!OCY: Deutschland
!!!AGN: chorale
!!!AST: Baroque
!!!AIN: vox
!!!YOY: 1941
!!!PPP: New York; London
!!!PPR: G. Schirmer
!!!ENC: David Huron
!!!EED: David Huron
!!!YEN: United States of America
!!!YER: 1992
!!!YEC: Copyright 1992 David Huron
!!!YEM: Rights to all derivative electronic formats reserved.
!!!YER: March 20, 1996
!!!AMT: simple quadruple
!!!EEV: 1.1
!!chor2scor: -l 2 -s 0.6 -o %b.pmx
